lib/preview/nrk-logo-preview-nrk-super.svg

<svg width="54" height="19" viewBox="0 0 54 19" fill="none" xmlns="http://www.w3.org/2000/svg">
<path d="M0 14.9989V2.99997H3.93719V14.9989H0ZM9.29381 4.90966L11.5581 14.9989H7.24917L4.54549 2.99997H6.96218C7.51635 2.99278 8.05406 3.18813 8.4745 3.54927C8.89562 3.89527 9.18495 4.37558 9.29381 4.90966ZM12.1495 14.9989V2.99997H16.0867V14.9989H12.1495ZM19.0605 7.56298C18.6362 7.56712 18.2188 7.45611 17.8525 7.24185C17.4912 7.033 17.1911 6.73284 16.9823 6.37148C16.7678 6.00522 16.6568 5.58765 16.661 5.1632C16.6561 4.74135 16.7672 4.32626 16.9823 3.96331C17.1933 3.60587 17.4931 3.30898 17.8525 3.1014C18.2189 2.88739 18.6362 2.7764 19.0605 2.78027C19.4822 2.77573 19.8971 2.88681 20.2602 3.1014C20.616 3.3108 20.9127 3.60744 21.122 3.96331C21.3368 4.32636 21.4479 4.74138 21.4433 5.1632C21.4473 5.58761 21.3363 6.00511 21.122 6.37148C20.9149 6.73126 20.6179 7.03116 20.2602 7.24185C19.8971 7.45686 19.4824 7.56798 19.0605 7.56298ZM22.0516 14.9989V2.99997H25.9892V14.9989H22.0516ZM30.9737 9.55712C30.9848 9.56876 31.0693 9.70677 31.2272 9.97116C31.3851 10.2355 31.5906 10.5736 31.8439 10.9852C32.0974 11.3966 32.3649 11.8331 32.6463 12.2949C32.9278 12.7566 33.1926 13.1932 33.4408 13.6047C33.6881 14.0161 33.9697 14.4808 34.2857 14.9989H29.9598C29.6893 14.5595 29.4441 14.1623 29.2245 13.8075C29.0048 13.4526 28.7713 13.0695 28.5238 12.6582C28.2758 12.2474 28.0306 11.8474 27.7882 11.4584C27.5458 11.0693 27.3375 10.7285 27.1633 10.4359C26.9883 10.1432 26.8671 9.94601 26.7997 9.84442C26.6325 9.59233 26.5336 9.30118 26.5127 8.99943C26.5294 8.70982 26.6226 8.42986 26.7828 8.188C26.8504 8.07533 26.9743 7.87531 27.1545 7.58801C27.3348 7.30072 27.546 6.95994 27.7882 6.56561C28.0304 6.17128 28.2756 5.76849 28.5238 5.35726C28.772 4.94603 29.0056 4.56012 29.2245 4.19959C29.4445 3.83944 29.6897 3.43947 29.9598 2.9997H34.2857L30.9396 8.45838C30.8361 8.62045 30.7777 8.80723 30.7706 8.99943C30.7818 9.20121 30.8528 9.3952 30.9737 9.55712Z" fill="white"/>
<path d="M48.3134 0.835663C49.3689 1.2833 50.3281 1.93032 51.1384 2.74127C51.9495 3.55169 52.5965 4.51097 53.044 5.56654C53.5063 6.65632 53.7404 7.8292 53.732 9.01292C53.7394 10.1914 53.5052 11.3588 53.044 12.4433C52.5963 13.4988 51.9493 14.458 51.1384 15.2685C50.328 16.0794 49.3688 16.7264 48.3134 17.1742C47.2235 17.6361 46.0506 17.8701 44.8668 17.8618C43.683 17.8703 42.51 17.6362 41.4201 17.1742C40.3664 16.7277 39.4096 16.0805 38.6031 15.2685C37.7965 14.4563 37.1526 13.4973 36.7061 12.4433C36.2448 11.3589 36.0106 10.1914 36.0182 9.01292C36.0096 7.82919 36.2438 6.65627 36.7061 5.56654C37.1525 4.51242 37.7964 3.55343 38.6031 2.74127C39.4096 1.92926 40.3664 1.28202 41.4201 0.835663C42.51 0.373489 43.683 0.139458 44.8668 0.147991C46.0506 0.139559 47.2235 0.373586 48.3134 0.835663ZM47.6506 15.5585C48.4977 15.2037 49.2684 14.6888 49.9205 14.0421C50.5725 13.3959 51.0906 12.6273 51.445 11.7805C51.8126 10.9044 51.9986 9.96293 51.9918 9.01292C51.9985 8.06301 51.8125 7.12162 51.445 6.24565C51.0892 5.39711 50.5714 4.62609 49.9205 3.97577C49.269 3.32415 48.4984 2.80372 47.6506 2.44272C46.7704 2.06917 45.8229 1.88033 44.8668 1.88789C43.9161 1.88136 42.9742 2.07021 42.0995 2.44272C41.2515 2.80364 40.4807 3.32408 39.8291 3.97577C39.1775 4.62727 38.6572 5.39786 38.2963 6.24565C37.9237 7.12033 37.7349 8.06222 37.7415 9.01292C37.7348 9.96371 37.9236 10.9057 38.2963 11.7805C38.6558 12.6266 39.1764 13.3947 39.8291 14.0421C40.4813 14.6889 41.2522 15.2038 42.0995 15.5585C42.9755 15.926 43.9169 16.112 44.8668 16.1054C45.8221 16.113 46.7692 15.927 47.6506 15.5585ZM40.9973 10.0074C40.8722 9.88428 40.7733 9.73715 40.7064 9.57485C40.6395 9.41255 40.6061 9.23843 40.6082 9.06291C40.6039 8.88215 40.6362 8.70239 40.703 8.53439C40.7699 8.3664 40.87 8.21363 40.9973 8.08525C41.1199 7.95654 41.2679 7.85473 41.4319 7.78627C41.5959 7.7178 41.7724 7.68419 41.9501 7.68755C42.1328 7.68404 42.3142 7.71745 42.4837 7.78579C42.6531 7.85413 42.807 7.95599 42.9361 8.08525C43.0678 8.21117 43.1719 8.3631 43.2419 8.5314C43.3118 8.6997 43.346 8.88069 43.3423 9.06291C43.3437 9.23989 43.3083 9.41523 43.2383 9.57782C43.1684 9.74041 43.0655 9.88669 42.9361 10.0074C42.807 10.1367 42.6531 10.2385 42.4837 10.3069C42.3142 10.3752 42.1328 10.4086 41.9501 10.4051C41.7724 10.4085 41.5959 10.3749 41.4319 10.3064C41.2679 10.2379 41.1199 10.1361 40.9973 10.0074ZM47.7332 7.10759C47.7442 7.07417 47.7666 7.07417 47.7998 7.10759L48.1975 8.18467C48.2044 8.21418 48.2215 8.2403 48.2457 8.25852C48.2699 8.27674 48.2998 8.28589 48.33 8.28437L49.5062 8.31723C49.5283 8.31723 49.5394 8.3258 49.5394 8.34237C49.5361 8.3652 49.5243 8.38594 49.5062 8.40036L48.6611 9.12946C48.6444 9.13425 48.6288 9.14247 48.6154 9.15359C48.602 9.16472 48.5911 9.17851 48.5833 9.19409C48.5755 9.20967 48.571 9.2267 48.5702 9.2441C48.5693 9.26151 48.5721 9.2789 48.5783 9.29517L48.8768 10.3723C48.8768 10.4275 48.86 10.4551 48.8269 10.4551L47.8492 9.80885C47.785 9.78615 47.7149 9.78615 47.6506 9.80885L46.7224 10.4551C46.6782 10.4551 46.6617 10.4275 46.673 10.3723L46.9712 9.29517C46.974 9.26261 46.9677 9.22992 46.953 9.2007C46.9384 9.17147 46.9161 9.14683 46.8884 9.12946L46.0104 8.40036C46.0004 8.3826 45.9948 8.36273 45.9939 8.34237C45.9939 8.3258 45.9991 8.31723 46.0104 8.31723L47.1867 8.28437C47.2192 8.28773 47.252 8.27961 47.2792 8.2614C47.3064 8.2432 47.3264 8.21606 47.3358 8.18467L47.7332 7.10759Z" fill="white"/>
</svg>

<svg xmlns="http://www.w3.org/2000/svg" viewBox="0 0 54 19"><path fill="#fff" d="M0 14.999V3h3.937v11.999H0Zm9.294-10.09L11.558 15H7.25L4.545 3h2.417a2.276 2.276 0 0 1 1.513.55c.42.345.71.826.819 1.36ZM12.149 15V3h3.938v11.999h-3.938Zm6.912-7.436a2.382 2.382 0 0 1-2.4-2.4 2.301 2.301 0 0 1 .321-1.2 2.41 2.41 0 0 1 3.278-.862c.356.21.653.506.862.862.215.363.326.778.321 1.2a2.35 2.35 0 0 1-.321 1.208 2.4 2.4 0 0 1-.862.87 2.3 2.3 0 0 1-1.2.322Zm2.99 7.436V3h3.938v11.999h-3.937Zm8.923-5.442c.01.012.095.15.253.414s.364.603.617 1.014a309.436 309.436 0 0 1 1.597 2.62c.247.411.529.876.845 1.394H29.96c-.27-.44-.516-.837-.736-1.192-.22-.354-.453-.738-.7-1.149-.248-.41-.493-.81-.736-1.2-.242-.389-.45-.73-.625-1.022-.175-.293-.296-.49-.363-.592A1.747 1.747 0 0 1 26.513 9c.016-.29.11-.57.27-.811.067-.113.191-.313.371-.6s.392-.628.634-1.022c.242-.395.488-.798.736-1.209l.7-1.157.736-1.2h4.326L30.94 8.458a1.08 1.08 0 0 0-.17.541c.012.202.083.396.204.558ZM48.313.836a8.913 8.913 0 0 1 4.731 4.73 8.667 8.667 0 0 1 .688 3.447 8.627 8.627 0 0 1-.688 3.43 8.918 8.918 0 0 1-4.73 4.731 8.677 8.677 0 0 1-3.447.688 8.672 8.672 0 0 1-3.447-.688 8.821 8.821 0 0 1-2.817-1.905 8.98 8.98 0 0 1-1.897-2.826 8.621 8.621 0 0 1-.688-3.43 8.664 8.664 0 0 1 .688-3.446 8.976 8.976 0 0 1 1.897-2.826A8.818 8.818 0 0 1 41.42.836a8.669 8.669 0 0 1 3.447-.688 8.672 8.672 0 0 1 3.446.688Zm-.662 14.723a7.142 7.142 0 0 0 2.27-1.517 7.023 7.023 0 0 0 2.071-5.03 7.025 7.025 0 0 0-.547-2.766 7.077 7.077 0 0 0-1.525-2.27 7.197 7.197 0 0 0-2.27-1.533 6.984 6.984 0 0 0-2.783-.555 6.941 6.941 0 0 0-2.767.555 7.195 7.195 0 0 0-3.804 3.803 6.938 6.938 0 0 0-.554 2.767c-.007.95.182 1.893.554 2.768.36.846.88 1.614 1.533 2.261a7.14 7.14 0 0 0 2.27 1.517 7.027 7.027 0 0 0 2.768.546 7.071 7.071 0 0 0 2.784-.546Zm-6.654-5.552a1.304 1.304 0 0 1-.389-.944 1.344 1.344 0 0 1 .39-.978 1.283 1.283 0 0 1 .952-.397 1.357 1.357 0 0 1 .986.397 1.317 1.317 0 0 1 .406.978 1.277 1.277 0 0 1-.406.944 1.357 1.357 0 0 1-.986.398 1.281 1.281 0 0 1-.953-.398Zm6.736-2.9c.011-.033.034-.033.067 0l.398 1.078a.13.13 0 0 0 .132.1l1.176.032c.022 0 .033.009.033.025a.09.09 0 0 1-.033.058l-.845.73a.126.126 0 0 0-.083.165l.299 1.077c0 .056-.017.083-.05.083l-.978-.646a.298.298 0 0 0-.198 0l-.929.646c-.044 0-.06-.027-.049-.083l.298-1.077a.177.177 0 0 0-.083-.166L46.01 8.4a.13.13 0 0 1-.016-.058c0-.016.005-.025.016-.025l1.177-.033a.14.14 0 0 0 .149-.1l.397-1.076Z"/></svg>
